X: 1
T: Cooley's
R: reel
M: 4/4
L: 1/8
Q:1/2=80
K: Edor
|:GF|"Em"EBBA B2 EB|"Em"B2 AB "G"dBAG|"D"FDAD "G"BD"D"AD|"D"FDAD "Bm7"dAFD|
"Em"EBBA B2 EB|"Em"B2 AB "G"defg|"Bm"afec "Bm7"dBAF|"D"DEFD "Em"E2:|
|gf|:"Em"eB ~B2 efge|"Em"eB ~B2 "G"gedB|"D"A2 FA DAFA|"D"A2 FA "Bm"defg|
"Em"eB ~B2 eBgB|"Em"eB ~B2 "G"defg|"Bm"afec "Bm7"dBAF|"D"DEFD "Em"E2:|
